chrome/urlbar/permissions/midi.svg

<svg xmlns="http://www.w3.org/2000/svg" width="16" height="16" viewBox="0 0 16 16">
   <path
   style="fill:context-fill;fill-opacity:context-fill-opacity"
   d="M 0.5 2 C 0.22386 2 0 2.22386 0 2.5 L 0 13.5 C 0 13.7761 0.22386 14 0.5 14 L 15.5 14 C 15.7761 14 16 13.7761 16 13.5 L 16 2.5 C 16 2.22386 15.7761 2 15.5 2 L 0.5 2 z M 1 3 L 15 3 L 15 7 L 1 7 L 1 3 z M 3.75 4 C 3.33579 4 3 4.33579 3 4.75 C 3 5.16421 3.33579 5.5 3.75 5.5 C 4.16421 5.5 4.5 5.16421 4.5 4.75 C 4.5 4.33579 4.16421 4 3.75 4 z M 10.5 4 C 10.2239 4 10 4.22386 10 4.5 C 10 4.77614 10.2239 5 10.5 5 L 12.5 5 C 12.7761 5 13 4.77614 13 4.5 C 13 4.22386 12.7761 4 12.5 4 L 10.5 4 z M 6.25 4.0019531 C 5.83579 4.0019531 5.5 4.3377431 5.5 4.7519531 C 5.5 5.1661731 5.83579 5.5019531 6.25 5.5019531 C 6.66421 5.5019531 7 5.1661731 7 4.7519531 C 7 4.3377431 6.66421 4.0019531 6.25 4.0019531 z M 1 8 L 3 8 L 3 11.5 C 3 11.7761 3.22386 12 3.5 12 C 3.77614 12 4 11.7761 4 11.5 L 4 8 L 6 8 L 6 11.5 C 6 11.7761 6.22386 12 6.5 12 C 6.77614 12 7 11.7761 7 11.5 L 7 8 L 9 8 L 9 11.5 C 9 11.7761 9.2239 12 9.5 12 C 9.7761 12 10 11.7761 10 11.5 L 10 8 L 12 8 L 12 11.5 C 12 11.7761 12.2239 12 12.5 12 C 12.7761 12 13 11.7761 13 11.5 L 13 8 L 15 8 L 15 13 L 1 13 L 1 8 z " />
</svg>

<svg xmlns="http://www.w3.org/2000/svg" width="16" height="16">
  <path style="fill:context-fill;fill-opacity:context-fill-opacity" d="M.5 2a.5.5 0 0 0-.5.5v11a.5.5 0 0 0 .5.5h15a.5.5 0 0 0 .5-.5v-11a.5.5 0 0 0-.5-.5H.5zM1 3h14v4H1V3zm2.75 1a.75.75 0 1 0 0 1.5.75.75 0 0 0 0-1.5zm6.75 0a.5.5 0 0 0 0 1h2a.5.5 0 0 0 0-1h-2zm-4.25.002a.75.75 0 1 0 0 1.5.75.75 0 0 0 0-1.5zM1 8h2v3.5a.5.5 0 0 0 1 0V8h2v3.5a.5.5 0 0 0 1 0V8h2v3.5a.5.5 0 0 0 1 0V8h2v3.5a.5.5 0 0 0 1 0V8h2v5H1V8z"/>
</svg>
